X:1
T:Santiago, 76.76.76 D
T:Santiago, 76.76.76 D
T:Robert Brooks Finch, 1898
T:Public Domain Courtesy of the Cyber Hymnal™
C:Robert Brooks Finch, 1898
Z:Public Domain
Z:Courtesy of the Cyber Hymnal™
%%score ( 1 2 ) ( 3 4 )
L:1/8
Q:1/4=105
M:4/4
K:Bb
V:1 treble 
V:2 treble 
V:3 bass 
V:4 bass 
V:1
 (F>B) | [FBd]2 [FBd]2 [FG=Be]2 [FGBd]2 | [EGd]4 [EGc]2 (G>B) | %3
!<(! [EB]2!<)! [EA]2!<(! [FA]2!<)! [EG]2 | (G4 F2) F>B | [FBd]2 [FBd]2 [FG=Be]2 [FGBd]2 | %6
 [EGd]4 [EGc]2 G>B | (B A2) G [EA]2 (F>c) | [DFB]6 (3(.D.F.B) | %9
 [CD^FB]2 [CDFA]2 [CDFA]2 (3(.D.F.A) | [B,DA]4 [B,DG]2 z3/2 _G/ | F>G F>A d2 c>d | %12
 ([EFAc]4 [DFB]2) (3(de=e) | f2 A2 A2 (3(F^FG) | z2 [^CEG]2 D2 (3(AB=B) | %15
 c2 [=EGc]2 [CFc]2 [EBc]2 | [FAcf]6 (F>B) | [FBd]2 [FBd]2 [FG=Be]2 [FGBd]2 | [EGd]4 [EGc]2 (G>B) | %19
!<(! [EB]2!<)! [EA]2!<(! [EA]2!<)! [EG]2 | (G4 F2) (F>B) | [FBd]2 [FBd]2 [G=Bdg]2 [GBdf]2 | %22
 [Gcf]4 [Gce]2 (G>B) | (B A2) G [EA]2 (F>c) | [DFB]6 |] %25
V:2
 x2 | x8 | x8 | x8 | D6 x2 | x8 | x8 | E4 x E2 x | x8 | x8 | x8 | x8 | x8 | x8 | (A4 D2) x2 | x8 | %16
 x8 | x8 | x8 | x8 | D6 x2 | x8 | x8 | E4 x E2 x | x6 |] %25
V:3
 z2 | [B,,,B,,]2 [F,B,D]2 [G,,,G,,]2 [G,=B,D]2 | ([C,,C,]2 E,2) [G,C]2 z2 | %3
 ([F,,,F,,]2 .[F,A,]2) (F,,2 .[F,A,]2) | ([B,,,B,,]2 D,2 [F,B,]2) z2 | %5
 [B,,,B,,]2 [F,B,D]2 [G,,,G,,]2 [G,=B,D]2 | ([C,,C,]2 E,2 [G,C]2) z2 | %7
 (F,,2 .[F,A,]2) (F,,2 .[F,A,]2) | ([B,,,B,,]2 F,2 B,2) z2 | D,,2 [D,A,]2 [D,A,]2 z2 | %10
 (G,,2 D,2 G,2) z3/2 _G,/ | F,>G, F,>A, D2 C>D | %12
 (3z ([F,,F,][^F,,^F,] (3[G,,G,][^G,,^G,][A,,A,] [B,,B,]2) (3(DE=E) | F2 A,2 A,2 (3(F,^F,G,) | %14
 (z2 [D,,D,]2) x4 | C2 [B,,B,]2 [A,,A,]2 [G,,G,]2 | [F,,F,]6 z2 | %17
 [B,,,B,,]2 [F,B,D]2 [G,,,G,,]2 [G,=B,D]2 | ([C,,C,]2 E,2 [G,C]2) z2 | %19
 [F,,,F,,]2 .[F,A,]2 F,,2 .[F,A,]2 | ([B,,,B,,]2 D,2 [F,B,]2) z2 | %21
 [B,,,B,,]2 [F,B,D]2 [G,,,G,,]2 [G,=B,D]2 | ([C,,C,]2 G,2 [CE]2) z2 | %23
 (F,,2 .[F,A,]2) F,,2 [F,A,]2 | ([B,,,B,,]2 F,2 [B,,B,]2) |] %25
V:4
 x2 | x8 | x8 | x8 | x8 | x8 | x8 | x8 | x8 | x8 | x8 | x8 | x8 | x8 | (A,4 A,,2 (3A,B,=B,) | x8 | %16
 x8 | x8 | x8 | x8 | x8 | x8 | x8 | x8 | x6 |] %25

